X:397
T: ES GIEBT DOCH KEIN SCHOENER LEBEN
N: E1589
O: Europa, Mitteleuropa, Deutschland, Hessen, Giessen; Marburg
R: Staende - Lied, Strassen - Raeuber
M: 4/4
L: 1/8
K: G
 | D2G2G2B2 | B2AGA2A2 |
B3cdedc | B2A2G2z2 |
D2G2G2B2 | B2AGA2A2 |
B3cdedc | B2A2G2z2 |
GBd2B2 | ABcBA2
GBd2B2 | ABcBA2
D2G2G2B2 | B2AGA2z2 |
B3cdedc | B2A2G2z2

@@@ Tune index: 5081
